X: 250
U:~=!turn!
M:C|
L:1/8
K:A Mix
g | f>ae>f c>de>g | (Tfd)gd B>cd>g | f>ae>f c>de>(g | f>d)B>e cAA>f |
f>ae>f c>de>(g | f>d)g>d B>cd>e | c>de>a ^g>ae>(=g | f>d)Be Tc>A A |]


